X: 101
T: POLKA: Siege of Ennis
T: Banks of Inverness
C: C: Trad.; S: Séamus Begley
C: Set Leaders: Tania, Anton
Z: Anton Zille ed. arr., Oleg Naumov arr.; CreadurMawnOrganig at The Session
N: https://www.soundslice.com/slices/CLHRc/
N: https://thesession.org/members/26966/sets/89997
R: Polka
M: 2/4
L: 1/8
Q: 1/4=140
K: Gmaj
|:"G"D>E DB,|"G"DE G>A|"C"Bd AB/A/|"D"GE cE|
"G"D>E DB,|"G"DE G>A|"C"Bd "D"AB/A/|1 "G"G2 G/A/G/E/:|2 "G"G2 G>A||
"G"Bd dB|"C"ce e>d|"G"Bd AB/A/|"D"GE ED|
"G"Bd d>B|"C"ce e>f|"G"gf "D/F#"ed|"Em"e2 e>f|
"Em"ge fd|"Em"e/f/e/d/ BA|"C"Bd AB/A/|"D"GE cE|
"G"D>E DB,|"G"DE G>A|"C"Bd "D"AB/A/|"G"G2 G>A||
|:"G"Bd Bd|"G"Bd dB/d/|"C"ed Bd|"D"ed B>A|
"G"Bd Bd|"G"Bd dB/d/|"C"ed "D"BA|"G"AG G2:||
|:"G"GB d2|"C"ed c2|"G"dB GB|"D"A/B/A/G/ ED|
"G (Em)"GB d>d|"C"ed c>e|"C (G)"dB GE|1 "D"ED D2:|2 "C"ED "D"GE||

